X: 0
T: Toria's 50th
C: Laura Wilkie
R: reel
M: 4/4
L: 1/8
K: Emaj
|:"E"BeeB effe|Bffa fgge|"A"ceef fgfe|ecfe fgge|
"F#m"Aefg cAef|gag/f/e effe|"A"AAeA AeAc|"B"efBB defe:|
|:"E"b2ag aba(g|g)eeg gffe|"A"Aefg cAef|ggff ed2B|
"F#m"FAce fAce|fgec eccA|"A"FAce fAce|[1 "B"BeBf fgga:|[2 "B"fgec fgec|]